src/assets/home/sun-shadow.svg

<svg fill="none" height="166" viewBox="0 0 326 166" width="326" xmlns="http://www.w3.org/2000/svg" xmlns:xlink="http://www.w3.org/1999/xlink"><linearGradient id="a" gradientUnits="userSpaceOnUse" x1="162" x2="162" y1="-151" y2="-2.28862"><stop offset="0" stop-color="#ffe9d6"/><stop offset="1" stop-color="#fbf5ef"/></linearGradient><linearGradient id="b" gradientUnits="userSpaceOnUse" x1="167.505" x2="167.485" y1="175.454" y2="138.193"><stop offset="0" stop-color="#d8b684"/><stop offset="1" stop-color="#ffe9d0"/></linearGradient><linearGradient id="c" gradientUnits="userSpaceOnUse" x1="167.361" x2="167.361" y1="163.775" y2="146.535"><stop offset="0" stop-color="#202020"/><stop offset="1" stop-color="#ffb978"/></linearGradient><mask id="d" height="166" maskUnits="userSpaceOnUse" width="326" x="0" y="0"><path d="m0 0h326v166h-326z" fill="#d9d9d9"/></mask><g mask="url(#d)"><circle cx="162.5" cy="7.49999" fill="url(#a)" r="158.5" transform="matrix(-1 -0 0 -1 325 14.99998)"/><path clip-rule="evenodd" d="m110.739 157.349c16.538-12.02 37.18-19.156 59.568-19.156 19.908 0 38.436 5.643 53.925 15.345-18.967 8.024-39.821 12.462-61.711 12.462-18.133 0-35.555-3.045-51.782-8.651z" fill="url(#b)" fill-rule="evenodd"/><path d="m104.893 154.877c17.714-14.559 40.757-23.358 65.949-23.358 22.488 0 43.262 7.011 60.063 18.872" stroke="#f3dab9"/><path clip-rule="evenodd" d="m138.296 163.971c7.949-7.043 18.406-11.318 29.861-11.318 10.705 0 20.538 3.734 28.268 9.971-10.551 2.213-21.488 3.376-32.697 3.376-8.657 0-17.151-.694-25.432-2.029z" fill="url(#c)" fill-rule="evenodd"/></g></svg>

<svg width="326" height="166" viewBox="0 0 326 166" fill="none" xmlns="http://www.w3.org/2000/svg">
<mask id="mask0_24_1922" style="mask-type:alpha" maskUnits="userSpaceOnUse" x="0" y="0" width="326" height="166">
<rect width="326" height="166" fill="#D9D9D9"/>
</mask>
<g mask="url(#mask0_24_1922)">
<circle cx="162.5" cy="7.49999" r="158.5" transform="rotate(-180 162.5 7.49999)" fill="url(#paint0_linear_24_1922)"/>
<path fill-rule="evenodd" clip-rule="evenodd" d="M110.739 157.349C127.277 145.329 147.919 138.193 170.307 138.193C190.215 138.193 208.743 143.836 224.232 153.538C205.265 161.562 184.411 166 162.521 166C144.388 166 126.966 162.955 110.739 157.349Z" fill="url(#paint1_linear_24_1922)"/>
<path d="M104.893 154.877C122.607 140.318 145.65 131.519 170.842 131.519C193.33 131.519 214.104 138.53 230.905 150.391" stroke="#F3DAB9"/>
<path fill-rule="evenodd" clip-rule="evenodd" d="M138.296 163.971C146.245 156.928 156.702 152.653 168.157 152.653C178.862 152.653 188.695 156.387 196.425 162.624C185.874 164.837 174.937 166 163.728 166C155.071 166 146.577 165.306 138.296 163.971Z" fill="url(#paint2_linear_24_1922)"/>
</g>
<defs>
<linearGradient id="paint0_linear_24_1922" x1="162" y1="-151" x2="162" y2="-2.28862" gradientUnits="userSpaceOnUse">
<stop stop-color="#FFE9D6"/>
<stop offset="1" stop-color="#FBF5EF"/>
</linearGradient>
<linearGradient id="paint1_linear_24_1922" x1="167.505" y1="175.454" x2="167.485" y2="138.193" gradientUnits="userSpaceOnUse">
<stop stop-color="#D8B684"/>
<stop offset="1" stop-color="#FFE9D0"/>
</linearGradient>
<linearGradient id="paint2_linear_24_1922" x1="167.361" y1="163.775" x2="167.361" y2="146.535" gradientUnits="userSpaceOnUse">
<stop stop-color="#202020"/>
<stop offset="1" stop-color="#FFB978"/>
</linearGradient>
</defs>
</svg>
